X:1
T:Title
%%score 1 { ( 2 5 ) | ( 3 4 ) }
L:1/8
M:3/4
K:Eb
V:1 treble nm="Choir Aahs"
V:2 treble nm="Grand Piano"
V:5 treble 
V:3 bass 
V:4 bass 
V:1
 z2 z2[Q:1/4=100] G>F | F2 E2 E2 | E4 B>A | A2 G2 A2 | B4 G>B | e3 d c2 | B2 G2 B2 | F6- | F4 G>F | %9
 F2 E2 E2 | E4 G>A | B2 G2 E2 | c4 d>e | e2 B2 G2 |[M:7/8] B2 A3 F2 |[M:3/4] E6- |[M:2/4] E4 | %17
[M:4/4] z8 | z8 | z8 |[M:3/4] z6 |[M:1/4] z2 | z2 |[M:4/4] z8 |[M:9/8] z9 |[M:4/4] z8 | %26
[M:7/8] z7 |] %27
V:2
 z2 z2 [B,G]>F | F2 E2 E2 | E4 [DB]>[FA] | [FA]2 G2 A2 | B4 G2 | A2 z2 A2 | G2 z2 E2 | D4 F2 | %8
 B4 G>F | F2 E2 E2 | E4 z2 | G6 | [CEA]4 z2 | [B,EG]6 |[M:7/8] B2 A3 F2 |[M:3/4] E6- |[M:2/4] E4 | %17
[M:4/4] z2 [GB]6 | z2 [Ge]6 | [GB]>[GB] [Ac]2 [Ae]2 [Ac]B |[M:3/4] z2 [DF]4- |[M:1/4] [DF]2 | E>F | %23
[M:4/4] G3 G AGFE |[M:9/8] [GB]2 [Ac]- [Ac] [GB]2- [GB][EG]>[EB] |[M:4/4] [Ec]2 [Ee]2 [EB]4 | %26
[M:7/8] [DF]3 [DG] E3 |] %27
V:3
 z2 z2 z z/ A,/ | [E,A,B,]2 [E,G,B,]2 [E,A,C]2 | [E,G,B,]4 [B,,F,]>[D,B,] | %3
 [D,B,]2 [E,B,E]2 [E,CE]2 | [E,G,E]4 [E,B,E]2 | [A,CE]2 z2 [A,CE]2 | [E,B,E]2 z2 [E,G,B,]2 | %7
 [F,B,]4 [B,D]2 | [DF]4 B,>A, | [E,A,B,]2 [E,G,B,]2 [E,A,C]2 | [E,G,B,]4 z2 | [E,_DE]6 | A,,4 z2 | %13
 z6 |[M:7/8] [F,D]-[F,D]- [F,D]3 [A,D]2 |[M:3/4] [E,G,]6- |[M:2/4] [E,G,]4 | %17
[M:4/4] [E,B,E]>[E,B,] [E,E]2 E,<E, E,2 | [E,B,E]>[E,G,] [E,B,]2 E,>E, E,2 | %19
 [E,E]>[E,E] [A,E]2 [A,C]2 z G |[M:3/4] [E,B,E]>[E,G,E] [B,,B,]2 B,,2 |[M:1/4] B,,2 | %22
 [E,G,]>[E,A,E] |[M:4/4] [E,B,E]3 [E,B,E] CB,[E,A,E][E,G,] | %24
[M:9/8] [E,E]2 [E,E]- [E,E] [E,E]2- [E,E][E,B,]>[E,G,] |[M:4/4] [A,,A,]2 [C,A,]2 [E,G,]4 | %26
[M:7/8] [B,,A,]3 [B,,B,] [E,G,]3 |] %27
V:4
 z2 z2 E,2 | x6 | x6 | x6 | x6 | x6 | x6 | B,,6- | B,,4 E,2 | x6 | x6 | x6 | x6 | B,,6- | %14
[M:7/8] B,,-B,,-B,,- B,,3 z |[M:3/4] x6 |[M:2/4] x4 |[M:4/4] x8 | x8 | z4 z2 [E,E]2 |[M:3/4] x6 | %21
[M:1/4] x2 | x2 |[M:4/4] z4 [E,E]2 z2 |[M:9/8] x9 |[M:4/4] x8 |[M:7/8] x7 |] %27
V:5
 x6 | x6 | x6 | x6 | x6 | x6 | x6 | x6 | x6 | x6 | x6 | x6 | x6 | x6 |[M:7/8] x7 |[M:3/4] x6 | %16
[M:2/4] x4 |[M:4/4] G>[FA] z2 E<E E2 | G>[GB] z2 B,>B, B,2 | x8 |[M:3/4] G>B z2 B,2 |[M:1/4] B,A, | %22
 x2 |[M:4/4] x8 |[M:9/8] x9 |[M:4/4] x8 |[M:7/8] x7 |] %27

